images/section-icon-2.svg

<svg fill="none" height="58" viewBox="0 0 35 58" width="35" xmlns="http://www.w3.org/2000/svg" xmlns:xlink="http://www.w3.org/1999/xlink"><mask id="a" fill="#000" height="6" maskUnits="userSpaceOnUse" width="13" x="11.2572" y="52.4571"><path d="m11.2572 52.4571h13v6h-13z" fill="#fff"/><path clip-rule="evenodd" d="m23.6001 54.4571h-1.5429l-1.5429 1.5429h-3.0857-3.0857l-1.5428-1.5429h-1.5429" fill="#000" fill-rule="evenodd"/></mask><mask id="b" fill="#000" height="38" maskUnits="userSpaceOnUse" width="35" x="0" y="0"><path d="m0 0h35v38h-35z" fill="#fff"/><path clip-rule="evenodd" d="m25.1429 37.4857v-1.5428c0-2.7864.9689-5.3553 2.9036-7.3286 2.9145-2.9746 4.8106-6.6544 4.8106-11.1857 0-8.52123-6.9089-15.4286-15.4285-15.4286-8.51969 0-15.4286 6.90737-15.4286 15.4286 0 4.5313 1.89617 8.2111 4.81063 11.1857 1.93474 1.9733 2.90366 4.5422 2.90366 7.3286v1.5428" fill="#000" fill-rule="evenodd"/></mask><mask id="c" fill="#000" height="9" maskUnits="userSpaceOnUse" width="13" x="10.8" y="20.0571"><path d="m10.8 20.0571h13v9h-13z" fill="#fff"/><path clip-rule="evenodd" d="m12.8 22.0571 4.6286 4.6286 4.6286-4.6286" fill="#000" fill-rule="evenodd"/></mask><path d="m22.0572 54.4571v-2c-.5304 0-1.0391.2108-1.4142.5858zm-1.5429 1.5429v2c.5305 0 1.0392-.2107 1.4143-.5858zm-6.1714 0-1.4142 1.4142c.3751.3751.8838.5858 1.4142.5858zm-1.5428-1.5429 1.4142-1.4142c-.3751-.375-.8838-.5858-1.4142-.5858zm10.8-2h-1.5429v4h1.5429zm-2.9571.5858-1.5429 1.5429 2.8285 2.8284 1.5428-1.5428zm-.1287.9571h-3.0857v4h3.0857zm-3.0857 0h-3.0857v4h3.0857zm-1.6715.5858-1.5428-1.5429-2.8285 2.8285 1.5429 1.5428zm-2.957-2.1287h-1.5429v4h1.5429z" fill="#4a557d" mask="url(#a)"/><path d="m8.17139 41.1143c-.55229 0-1 .4477-1 1s.44771 1 1 1h18.51431c.5523 0 1-.4477 1-1s-.4477-1-1-1z" stroke="#4a557d" stroke-linejoin="round" stroke-width="2"/><path d="m8.17139 47.2857c-.55229 0-1 .4477-1 1s.44771 1 1 1h18.51431c.5523 0 1-.4477 1-1s-.4477-1-1-1z" stroke="#4a557d" stroke-linejoin="round" stroke-width="2"/><path d="m28.0465 28.6143 1.4281 1.4002.0005-.0005zm-21.23587 0-1.42859 1.3997.00049.0005zm20.33227 8.8714v-1.5428h-4v1.5428zm0-1.5428c0-2.3063.7929-4.3589 2.3317-5.9284l-2.8562-2.8004c-2.3306 2.3771-3.4755 5.4622-3.4755 8.7288zm2.3322-5.9289c3.2045-3.2706 5.382-7.431 5.382-12.5854h-4c0 3.9083-1.6147 7.1074-4.2392 9.786zm5.382-12.5854c0-9.62593-7.8044-17.4286-17.4285-17.4286v4c7.4152 0 13.4285 6.0121 13.4285 13.4286zm-17.4285-17.4286c-9.62412 0-17.4286 7.80267-17.4286 17.4286h4c0-7.4165 6.0134-13.4286 13.4286-13.4286zm-17.4286 17.4286c0 5.1544 2.17758 9.3148 5.38204 12.5854l2.85718-2.7994c-2.62446-2.6786-4.23922-5.8777-4.23922-9.786zm5.38253 12.5859c1.53886 1.5695 2.33176 3.6221 2.33176 5.9284h4.00001c0-3.2666-1.1449-6.3517-3.47557-8.7288zm2.33176 5.9284v1.5428h4.00001v-1.5428z" fill="#4a557d" mask="url(#b)"/><path d="m17.4286 26.6857-1.4142 1.4142c.7811.7811 2.0474.7811 2.8284 0zm-6.0428-3.2143 4.6286 4.6285 2.8284-2.8284-4.6285-4.6286zm7.457 4.6285 4.6286-4.6285-2.8284-2.8285-4.6286 4.6286z" fill="#f05f87" mask="url(#c)"/><g stroke-linejoin="round" stroke-width="2"><path d="m18.4287 26.6857c0-.5523-.4478-1-1-1-.5523 0-1 .4477-1 1v10.8c0 .5523.4477 1 1 1 .5522 0 1-.4477 1-1z" stroke="#f05f87"/><path d="m7.17139 17.4286c0 .4044.24364.7691.61731.9239.37368.1547.8038.0692 1.08979-.2168l9.25711-9.25716c.286-.286.3716-.71612.2168-1.08979-.1548-.37368-.5194-.61732-.9239-.61732-5.6637 0-10.25711 4.59337-10.25711 10.25717z" stroke="#4a557d" stroke-linecap="round"/></g></svg>

<svg width="35" height="58" viewBox="0 0 35 58" fill="none" xmlns="http://www.w3.org/2000/svg">
<mask id="path-1-outside-1" maskUnits="userSpaceOnUse" x="11.2572" y="52.4571" width="13" height="6" fill="black">
<rect fill="white" x="11.2572" y="52.4571" width="13" height="6"/>
<path fill-rule="evenodd" clip-rule="evenodd" d="M23.6001 54.4571H22.0572L20.5143 56H17.4286H14.3429L12.8001 54.4571H11.2572"/>
</mask>
<path d="M22.0572 54.4571V52.4571C21.5268 52.4571 21.0181 52.6679 20.643 53.0429L22.0572 54.4571ZM20.5143 56V58C21.0448 58 21.5535 57.7893 21.9286 57.4142L20.5143 56ZM14.3429 56L12.9287 57.4142C13.3038 57.7893 13.8125 58 14.3429 58V56ZM12.8001 54.4571L14.2143 53.0429C13.8392 52.6679 13.3305 52.4571 12.8001 52.4571V54.4571ZM23.6001 52.4571H22.0572V56.4571H23.6001V52.4571ZM20.643 53.0429L19.1001 54.5858L21.9286 57.4142L23.4714 55.8714L20.643 53.0429ZM20.5143 54H17.4286V58H20.5143V54ZM17.4286 54H14.3429V58H17.4286V54ZM15.7571 54.5858L14.2143 53.0429L11.3858 55.8714L12.9287 57.4142L15.7571 54.5858ZM12.8001 52.4571H11.2572V56.4571H12.8001V52.4571Z" fill="#4A557D" mask="url(#path-1-outside-1)"/>
<path d="M8.17139 41.1143C7.6191 41.1143 7.17139 41.562 7.17139 42.1143C7.17139 42.6666 7.6191 43.1143 8.17139 43.1143H26.6857C27.238 43.1143 27.6857 42.6666 27.6857 42.1143C27.6857 41.562 27.238 41.1143 26.6857 41.1143H8.17139Z" stroke="#4A557D" stroke-width="2" stroke-linejoin="round"/>
<path d="M8.17139 47.2857C7.6191 47.2857 7.17139 47.7334 7.17139 48.2857C7.17139 48.838 7.6191 49.2857 8.17139 49.2857H26.6857C27.238 49.2857 27.6857 48.838 27.6857 48.2857C27.6857 47.7334 27.238 47.2857 26.6857 47.2857H8.17139Z" stroke="#4A557D" stroke-width="2" stroke-linejoin="round"/>
<mask id="path-5-outside-2" maskUnits="userSpaceOnUse" x="0" y="0" width="35" height="38" fill="black">
<rect fill="white" width="35" height="38"/>
<path fill-rule="evenodd" clip-rule="evenodd" d="M25.1429 37.4857V35.9429C25.1429 33.1565 26.1118 30.5876 28.0465 28.6143C30.961 25.6397 32.8571 21.9599 32.8571 17.4286C32.8571 8.90737 25.9482 2 17.4286 2C8.90891 2 2 8.90737 2 17.4286C2 21.9599 3.89617 25.6397 6.81063 28.6143C8.74537 30.5876 9.71429 33.1565 9.71429 35.9429V37.4857"/>
</mask>
<path d="M28.0465 28.6143L29.4746 30.0145L29.4751 30.014L28.0465 28.6143ZM6.81063 28.6143L5.38204 30.014L5.38253 30.0145L6.81063 28.6143ZM27.1429 37.4857V35.9429H23.1429V37.4857H27.1429ZM27.1429 35.9429C27.1429 33.6366 27.9358 31.584 29.4746 30.0145L26.6184 27.2141C24.2878 29.5912 23.1429 32.6763 23.1429 35.9429H27.1429ZM29.4751 30.014C32.6796 26.7434 34.8571 22.583 34.8571 17.4286H30.8571C30.8571 21.3369 29.2424 24.536 26.6179 27.2146L29.4751 30.014ZM34.8571 17.4286C34.8571 7.80267 27.0527 0 17.4286 0V4C24.8438 4 30.8571 10.0121 30.8571 17.4286H34.8571ZM17.4286 0C7.80448 0 0 7.80267 0 17.4286H4C4 10.0121 10.0134 4 17.4286 4V0ZM0 17.4286C0 22.583 2.17758 26.7434 5.38204 30.014L8.23922 27.2146C5.61476 24.536 4 21.3369 4 17.4286H0ZM5.38253 30.0145C6.92139 31.584 7.71429 33.6366 7.71429 35.9429H11.7143C11.7143 32.6763 10.5694 29.5912 8.23873 27.2141L5.38253 30.0145ZM7.71429 35.9429V37.4857H11.7143V35.9429H7.71429Z" fill="#4A557D" mask="url(#path-5-outside-2)"/>
<mask id="path-7-outside-3" maskUnits="userSpaceOnUse" x="10.8" y="20.0571" width="13" height="9" fill="black">
<rect fill="white" x="10.8" y="20.0571" width="13" height="9"/>
<path fill-rule="evenodd" clip-rule="evenodd" d="M12.8 22.0571L17.4286 26.6857L22.0572 22.0571"/>
</mask>
<path d="M17.4286 26.6857L16.0144 28.0999C16.7955 28.881 18.0618 28.881 18.8428 28.0999L17.4286 26.6857ZM11.3858 23.4714L16.0144 28.0999L18.8428 25.2715L14.2143 20.6429L11.3858 23.4714ZM18.8428 28.0999L23.4714 23.4714L20.643 20.6429L16.0144 25.2715L18.8428 28.0999Z" fill="#F05F87" mask="url(#path-7-outside-3)"/>
<path d="M18.4287 26.6857C18.4287 26.1334 17.9809 25.6857 17.4287 25.6857C16.8764 25.6857 16.4287 26.1334 16.4287 26.6857V37.4857C16.4287 38.038 16.8764 38.4857 17.4287 38.4857C17.9809 38.4857 18.4287 38.038 18.4287 37.4857V26.6857Z" stroke="#F05F87" stroke-width="2" stroke-linejoin="round"/>
<path d="M7.17139 17.4286C7.17139 17.833 7.41503 18.1977 7.7887 18.3525C8.16238 18.5072 8.5925 18.4217 8.87849 18.1357L18.1356 8.87854C18.4216 8.59254 18.5072 8.16242 18.3524 7.78875C18.1976 7.41507 17.833 7.17143 17.4285 7.17143C11.7648 7.17143 7.17139 11.7648 7.17139 17.4286Z" stroke="#4A557D" stroke-width="2" stroke-linecap="round" stroke-linejoin="round"/>
</svg>
